X:1
T:Que te dare
T:Francisco Guerrero
T:Source : Secondo libro delle Laude spirituali a tre et a quattro voci---Roma---A.Gardano---1583. Editor : André Vierendeels (05/12/17). Notes:  Original clefs : C1, C1, C3, C4 Editorial accidentals above the staff Music compiled by Francisco Soto de Langa "Canciones y villanescas espirituales"
T:-natural
T:Que te dare
T:©
T:©
T:©
T:©
T:©
C:Francisco Guerrero
Z:©
%%score [ 1 2 [ 3 4 ] ]
L:1/8
Q:1/4=120
M:4/4
K:F
V:1 treble nm="Soprano" snm="S"
V:2 treble nm="Alto" snm="A"
V:3 treble-8 nm="Tenor 1" snm="T 1"
V:4 treble-8 nm="Tenor 2" snm="T 2"
V:1
 d8 | c4 B4 | A4 G4 | A6 A2 | B2 G2 B4 | A4 z2 F2 | G2 A2 B2 c2 | d6 d2 | c2 A2 B4 | A8 | z4 A4 | %11
w: Que|te da-|re Se-|ñor por|tan- tos do-|nes, que|man- das a mon-|to- nes|ca- da ho-|ra,|al|
 B6 G2 | A4 A4 | A8 | D8 | z4 d4 | G2 B2 A4 | G4 z4 | z4 =B4 | c8 | ^c4 d4- | d4 d4 | B4 B2 B2- | %23
w: al- ma|pec- ca-|do-|ra,|O|quien me die-|se|Ie-|sus|mio dul-|* ce,|que por ti|
 B2 B2 A4 | G8 | z8 | z8 | z4 d4- | d2 c2 c4 | B4 A4 | z2 A2 =B4- | B2 =B2 ^c2 c2 | ^c4 d4 | %33
w: _ mu- rie-|se,|||san|_ gre meas|da- do|y san-|* gre quer- ria|dar- te,|
 z2 d2 c4 | G2 A4 B2 | c4 =B4 ||"^RESIDUO" z2 c4 c2 | =B4 c4 | G4 z2 A2 | B3 A G2 F2 | E4 D2 D2 | %41
w: y san-|gre quer- ria|dar- te,|po- co'es|dar par-|te, a|quien a da- do'l|to- do, a|
 E2 F2 G4 | ^F4 z2 F2 | FF E2 F4 | A4 z2 F2- | F2 E2 F2 E2 | F3 G A4 | z4 d4- | d4 c4- | c2 A2 B4 | %50
w: da- do'l to-|do, no'a|_ d'a- ver mo-|do, no'a|_ d'a- ver me-|di- * da,|Chri-|* sto'n|_ a- mar|
 G8 | F4 D2 D2 |"^-natural" E2 E2 z2 E2 | D2 G2 G2 F2 | E4 D2 A2 | G2 F2 D3 E | F4 E4 | %57
w: te,|Chri- sto'n a-|mar te, y|po- co'es dar la|vi- da, y|po- co'es dar _|_ la|
 F4 !fermata!F4 |] %58
w: vi- da.|
V:2
 B8 | A4 G4 |"^b" F4 E4 | F6 F2 | G2 D2 G4 | ^F4 z2 D2 | E2 F2 G2 A2 | A4 G4 | A4 G4 | F2 ED E4 | %10
w: Que|te da-|re Se-|nor por|tan- tos do-|nes, que|man- das a mon-|to- nes|ca- da|ho- * * *|
 D4 F4 | F6 D2 | E4 F4 | E8 | G8 | z4 D4 | E2 G2 ^F4 | G4 z4 | z4 G4 | A8 | A4 B4- | B4 A4 | %22
w: ra, al|al- ma|pec- ca-|do-|ra,|O|quien me die-|se|Ie-|sus|mio dul-|* ce,|
 G4 G2 G2- | G2 G2 F4 | D8- | D8 | z4 G4- | G2 F2 F4 |"^-natural" E4 E2 E2 | G4 ^F4 | z2 E2 G4- | %31
w: que por ti|_ mu- rie-|se,|_|san-|* gre meas|da- do, y|san- gre,|y san-|
 G2 G2 E2 A2 | A4 D4 | z2 D2 E4- | E2 E2 ^F2 G2 | ^F4 G4 || z2 A4 A2 | G4 G4- | G4 F4 | z8 | %40
w: * gre quer- ria|dar- te,|y san-|* gre quer- ria|dar- te,|po- co'es|dar par-|* te,||
 z2 A2 G3 F | E2 D2 ^C4 | D8 | z4 z2 F2- | FF E2 F4 | A4 z4 | z2 F4 E2 | F2 E2 F3 G | A8 | z4 d4- | %50
w: a quien a|da- do'l to-|do,|no'a|_ d'a- ver mo-|do,|no'a d'a-|ver me- di- *|da,|Chri-|
 d4 c4- | c2 A2 B4 | G8 | z8 | G4 F4 | G2 A4 G2 | A8 | !fermata!A8 |] %58
w: * sto'n|_ a- mar|te,||y po-|co'es dar la|vi-|da.|
V:3
 f8 | f4 d4 | d4 B4 | c6 d2 | d2 B2 d4 | d4 A4 | B2 c2 d2 e2 | f4 d4 | e2 f2 d4- | d4 ^c4 | %10
w: Que|te dar-|re Se-|nor por|tan- tos do-|nes, que|man- das a- mon-|to- nes|ca- da ho-||
 d4 z2 d2 | d6 d2 | ^c4 d4- |"^-natural" d4 c4- | c4 =B4 | =B8 | z4 d4 | G2 B2 A4 | G4 d4 | f8 | %20
w: ra, al|al- ma|pec- ca-|* do-||ra,|O|quien me die-|se, Ie-|sus|
 e4 g4- | g4 ^f4 | d4 d2 _e2- | e2 _e2 c4 | =B8 | z4 d4- | d2 c2 c4 | B4 A4 | z8 | z2 G2 d4 | %30
w: mio dul-|* ce,|que por ti|_ mu- rie-|se,|san-|* gre meas|da- do,||y san-|
 ^c4 z2 d2 | e6 e2 | ^f2 f2 f4 | g4 z2 c2 | c3 c d2 d2 | c4 d4 || z2 f4 f2 | d4 e4- | e2 c2 z2 c2 | %39
w: gre, y|san- gre|quer- ria dar-|te, y|san- gre quer- ria|dar- te,|po- co'es|dar par-|* te, a|
 d3 f e2 d2 | ^c4 d2 G2 | B2 A2 G4 | A4 z2 d2- | dd ^c2 d4 | A4 z2 d2- | d2 ^c2 d2 c2 | d4 A4 | %47
w: quien a da- do'l|to- do, a|da- do'l to-|do, no'a|_ d'a- ver mo-|do, no'a|_ d'a- ver me-|di- da,|
 z4 f4- | f2 f2 e4 | f8 | d4 _e4 | c2 d2 B4 | c8 | z8 | z8 | c4 B4 | c2 d4 ^c2 | d4 !fermata!d4 |] %58
w: Chri-|* sto'n a-|mar|te, Chri-|sto'n a- mar|te,|||y po-|co'es dar la|vi- da.|
V:4
 B8 | F4 G4 | D4 G4 | F6 D2 | G2 G2 G4 | D4 z2 D2 | G2 F2 B2 A2 | d4 B4 | A2 F2 G4 | A8 | z4 D4 | %11
w: Que|te da-|re Se-|nor por|tan- tos do-|nes, que|man- das a- mon-|to- nes|ca- da ho-|ra,|al|
 B6 B2 | A4 D4 | A8 | G8- | G8 | z4 D4 |"^b" E2 G2 ^F4 | G4 G4 | F8 | A4 G4- | G4 D4 | G4 G2 _E2- | %23
w: al- ma|pec- ca-|do-|ra,|_|O|quien me die-|se, Ie-|sus|mio dul-|* ce,|que por ti|
 E2 _E2 F4 | G6 G2- | G2 G2 F4 |"^b" E8 | D8 | A4 c4 | G4 z2 D2 | A4 G4 | z2 G2 A4- | %32
w: _ mu- rie-|se, san-|* gre meas|da-|do,|y san-|gre, y|san- gre,|y san-|
 A2 A2 =B2 B2 | =B4 c4 | z2 A2 d2 B2 | A4 G4 || z2 F4 F2 | G4 c4- | c4 F4 | z8 | A4 B3 A | %41
w: * gre quer- ria|dar- te,|quer- ri- a|dar- te,|po- co'es|dar par-|* te,||a quien a|
 G2 F2 E4 | D8 |"^-natural" z4 z2 d2- | dd ^c2 d4 | A4 z4 | z2 d4 ^c2 | d2 c2 d4 | A8 | d8 | %50
w: da- do'l to-|do,|no'a|_ d'a- ver mo-|do,|no'a d'a-|ver me- di-|da,|Chri-|
 B4 c4 | F4 G4 | C4 z2 c2 | =B2 B2 c2 d2- | d2 ^c2 d2 D2 | E2 F2 G4 | F3 G A4 | D4 !fermata!D4 |] %58
w: sto'n a-|mar- *|te, y|po- co'es dar la|_ vi- da, y|po- co'es dar|la _ _|vi- da.|

